assets/flags-color/Au.svg

<svg xmlns="http://www.w3.org/2000/svg" viewBox="0 0 512 512"><g fill="#41479b"><path d="M0 0h512v512H0z"/><path d="M94.316 0H0v19.977L94.316 81.77zM0 68.299v26.017h39.71zM0 161.684v26.017l39.71-26.017zM256 19.977V0h-94.316v81.77zM256 187.701v-26.017h-39.71zM161.684 174.23V256H256v-19.977zM256 94.316V68.299l-39.71 26.017zM0 236.023V256h94.316v-81.77z"/></g><g fill="#f5f5f5"><path d="M256 236.023v-19.964l-83.768-54.375h24.748L256 199.995v-12.294l-39.71-26.017H256V148.21H148.211V256h13.473v-81.77zM0 148.21v13.474h39.71L0 187.701v18.901l69.197-44.918h24.748L0 222.666v13.357l94.316-61.793V256h13.473V148.21zM107.789 0H94.316v81.77L0 19.977v21.862l80.842 52.477H56.094L0 57.904v10.395l39.71 26.017H0v13.474h107.789zM256 107.79V94.316h-39.71L256 68.299V49.157l-69.568 45.159h-24.748L256 33.093V19.977L161.684 81.77V0h-13.473v107.79z"/></g><g fill="#ff4b55"><path d="M256 148.21v-40.42H148.211V0h-40.422v107.79H0v40.42h107.789V256h40.422V148.21z"/><path d="M69.197 161.684L0 206.602v16.064l93.945-60.982zM172.232 161.684L256 216.059v-16.064l-59.02-38.311zM80.842 94.316L0 41.839v16.065l56.094 36.412zM186.432 94.316L256 49.157V33.093l-94.316 61.223z"/></g><g fill="#f5f5f5"><path d="M130.415 337.445l8.482 28 27.179-10.827c2.319-.924 4.427 1.721 3.011 3.776l-16.603 24.089 25.411 14.5c2.168 1.237 1.415 4.534-1.075 4.708l-29.185 2.038 4.507 28.907c.385 2.466-2.663 3.934-4.351 2.095L128 413.184l-19.79 21.547c-1.688 1.838-4.736.371-4.351-2.095l4.507-28.907-29.186-2.039c-2.49-.174-3.242-3.471-1.075-4.708l25.411-14.5-16.603-24.089c-1.416-2.055.692-4.699 3.011-3.776l27.179 10.827 8.482-28c.724-2.388 4.106-2.388 4.83.001zM385.435 86.875l4.143 13.678 13.277-5.289c1.133-.451 2.163.84 1.471 1.844l-8.11 11.767 12.413 7.083c1.059.604.691 2.215-.525 2.3l-14.257.996 2.202 14.121c.188 1.205-1.301 1.921-2.125 1.024l-9.667-10.525-9.667 10.525c-.825.898-2.313.181-2.125-1.024l2.202-14.121-14.257-.996c-1.216-.085-1.584-1.696-.525-2.3l12.413-7.083-8.11-11.767c-.692-1.004.338-2.296 1.471-1.844l13.277 5.289 4.143-13.678c.35-1.167 2.002-1.167 2.356 0zM293.05 212.233l4.143 13.678 13.277-5.289c1.133-.451 2.163.84 1.471 1.844l-8.11 11.767 12.413 7.083c1.059.604.691 2.215-.525 2.3l-14.257.996 2.202 14.121c.188 1.205-1.301 1.922-2.125 1.024l-9.667-10.525-9.667 10.525c-.825.898-2.313.181-2.125-1.024l2.202-14.121-14.257-.996c-1.216-.085-1.584-1.696-.525-2.3l12.413-7.083-8.11-11.767c-.692-1.004.338-2.296 1.471-1.844l13.277 5.289 4.143-13.678c.35-1.166 2.002-1.166 2.356 0zM472.837 146.913l4.143 13.678 13.277-5.289c1.133-.451 2.163.84 1.471 1.844l-8.11 11.767 12.413 7.083c1.059.604.691 2.215-.525 2.3l-14.257.996 2.202 14.121c.188 1.205-1.301 1.921-2.125 1.024l-9.667-10.525-9.667 10.525c-.825.898-2.313.181-2.125-1.024l2.202-14.121-14.257-.996c-1.216-.085-1.584-1.696-.525-2.3l12.413-7.083-8.11-11.767c-.692-1.004.338-2.296 1.471-1.844l13.277 5.289 4.143-13.678c.35-1.167 2.002-1.167 2.356 0zM385.435 368.074l4.143 13.678 13.277-5.289c1.133-.451 2.163.84 1.471 1.844l-8.11 11.767 12.413 7.083c1.059.604.691 2.215-.525 2.3l-14.257.996 2.202 14.121c.188 1.205-1.301 1.922-2.125 1.024l-9.667-10.525-9.667 10.525c-.825.898-2.313.181-2.125-1.024l2.202-14.121-14.257-.996c-1.216-.085-1.584-1.696-.525-2.3l12.413-7.083-8.11-11.767c-.692-1.004.338-2.296 1.471-1.844l13.277 5.289 4.143-13.678c.35-1.167 2.002-1.167 2.356 0zM417.489 246.968l-3.326 9.974-10.513.081c-1.361.011-1.926 1.748-.831 2.556l8.458 6.246-3.171 10.024c-.411 1.298 1.067 2.371 2.174 1.58l8.553-6.114 8.553 6.114c1.107.792 2.585-.282 2.174-1.58l-3.171-10.024 8.458-6.246c1.095-.809.531-2.546-.831-2.556l-10.513-.081-3.326-9.974c-.431-1.291-2.258-1.291-2.688 0z"/></g></svg>

<svg xmlns="http://www.w3.org/2000/svg" x="0" y="0" enable-background="new 0 0 512 512" version="1.1" viewBox="0 0 512 512" xml:space="preserve"><g fill="#41479B"><path d="M0 0H512V512H0z"/><path d="M94.316 0 0 0 0 19.977 94.316 81.77z"/><path d="M0 68.299 0 94.316 39.71 94.316z"/><path d="M0 161.684 0 187.701 39.71 161.684z"/><path d="M256 19.977 256 0 161.684 0 161.684 81.77z"/><path d="M256 187.701 256 161.684 216.29 161.684z"/><path d="M161.684 174.23 161.684 256 256 256 256 236.023z"/><path d="M256 94.316 256 68.299 216.29 94.316z"/><path d="M0 236.023 0 256 94.316 256 94.316 174.23z"/></g><g fill="#F5F5F5"><path d="M256 236.023 256 216.059 172.232 161.684 196.98 161.684 256 199.995 256 187.701 216.29 161.684 256 161.684 256 148.21 148.211 148.21 148.211 256 161.684 256 161.684 174.23z"/><path d="M0 148.21 0 161.684 39.71 161.684 0 187.701 0 206.602 69.197 161.684 93.945 161.684 0 222.666 0 236.023 94.316 174.23 94.316 256 107.789 256 107.789 148.21z"/><path d="M107.789 0 94.316 0 94.316 81.77 0 19.977 0 41.839 80.842 94.316 56.094 94.316 0 57.904 0 68.299 39.71 94.316 0 94.316 0 107.79 107.789 107.79z"/><path d="M256 107.79 256 94.316 216.29 94.316 256 68.299 256 49.157 186.432 94.316 161.684 94.316 256 33.093 256 19.977 161.684 81.77 161.684 0 148.211 0 148.211 107.79z"/></g><g fill="#FF4B55"><path d="M256 148.21 256 107.79 148.211 107.79 148.211 0 107.789 0 107.789 107.79 0 107.79 0 148.21 107.789 148.21 107.789 256 148.211 256 148.211 148.21z"/><path d="M69.197 161.684 0 206.602 0 222.666 93.945 161.684z"/><path d="M172.232 161.684 256 216.059 256 199.995 196.98 161.684z"/><path d="M80.842 94.316 0 41.839 0 57.904 56.094 94.316z"/><path d="M186.432 94.316 256 49.157 256 33.093 161.684 94.316z"/></g><g fill="#F5F5F5"><path d="m130.415 337.445 8.482 28 27.179-10.827c2.319-.924 4.427 1.721 3.011 3.776l-16.603 24.089 25.411 14.5c2.168 1.237 1.415 4.534-1.075 4.708l-29.185 2.038 4.507 28.907c.385 2.466-2.663 3.934-4.351 2.095L128 413.184l-19.79 21.547c-1.688 1.838-4.736.371-4.351-2.095l4.507-28.907-29.186-2.039c-2.49-.174-3.242-3.471-1.075-4.708l25.411-14.5-16.603-24.089c-1.416-2.055.692-4.699 3.011-3.776l27.179 10.827 8.482-28c.724-2.388 4.106-2.388 4.83.001zM385.435 86.875l4.143 13.678 13.277-5.289c1.133-.451 2.163.84 1.471 1.844l-8.11 11.767 12.413 7.083c1.059.604.691 2.215-.525 2.3l-14.257.996 2.202 14.121c.188 1.205-1.301 1.921-2.125 1.024l-9.667-10.525-9.667 10.525c-.825.898-2.313.181-2.125-1.024l2.202-14.121-14.257-.996c-1.216-.085-1.584-1.696-.525-2.3l12.413-7.083-8.11-11.767c-.692-1.004.338-2.296 1.471-1.844l13.277 5.289 4.143-13.678c.35-1.167 2.002-1.167 2.356 0zM293.05 212.233l4.143 13.678 13.277-5.289c1.133-.451 2.163.84 1.471 1.844l-8.11 11.767 12.413 7.083c1.059.604.691 2.215-.525 2.3l-14.257.996 2.202 14.121c.188 1.205-1.301 1.922-2.125 1.024l-9.667-10.525-9.667 10.525c-.825.898-2.313.181-2.125-1.024l2.202-14.121-14.257-.996c-1.216-.085-1.584-1.696-.525-2.3l12.413-7.083-8.11-11.767c-.692-1.004.338-2.296 1.471-1.844l13.277 5.289 4.143-13.678c.35-1.166 2.002-1.166 2.356 0zM472.837 146.913l4.143 13.678 13.277-5.289c1.133-.451 2.163.84 1.471 1.844l-8.11 11.767 12.413 7.083c1.059.604.691 2.215-.525 2.3l-14.257.996 2.202 14.121c.188 1.205-1.301 1.921-2.125 1.024l-9.667-10.525-9.667 10.525c-.825.898-2.313.181-2.125-1.024l2.202-14.121-14.257-.996c-1.216-.085-1.584-1.696-.525-2.3l12.413-7.083-8.11-11.767c-.692-1.004.338-2.296 1.471-1.844l13.277 5.289 4.143-13.678c.35-1.167 2.002-1.167 2.356 0zM385.435 368.074l4.143 13.678 13.277-5.289c1.133-.451 2.163.84 1.471 1.844l-8.11 11.767 12.413 7.083c1.059.604.691 2.215-.525 2.3l-14.257.996 2.202 14.121c.188 1.205-1.301 1.922-2.125 1.024l-9.667-10.525-9.667 10.525c-.825.898-2.313.181-2.125-1.024l2.202-14.121-14.257-.996c-1.216-.085-1.584-1.696-.525-2.3l12.413-7.083-8.11-11.767c-.692-1.004.338-2.296 1.471-1.844l13.277 5.289 4.143-13.678c.35-1.167 2.002-1.167 2.356 0zM417.489 246.968l-3.326 9.974-10.513.081c-1.361.011-1.926 1.748-.831 2.556l8.458 6.246-3.171 10.024c-.411 1.298 1.067 2.371 2.174 1.58l8.553-6.114 8.553 6.114c1.107.792 2.585-.282 2.174-1.58l-3.171-10.024 8.458-6.246c1.095-.809.531-2.546-.831-2.556l-10.513-.081-3.326-9.974c-.431-1.291-2.258-1.291-2.688 0z"/></g></svg>
